dist/assets/img/footer/logo.svg

<svg width="136" height="25" viewBox="0 0 136 25" fill="none" xmlns="http://www.w3.org/2000/svg">
<path d="M48.01 16.565C47.69 16.795 47.28 16.96 46.78 17.06C46.29 17.16 45.785 17.21 45.265 17.21C44.635 17.21 44.035 17.115 43.465 16.925C42.905 16.725 42.41 16.41 41.98 15.98C41.55 15.54 41.205 14.975 40.945 14.285C40.695 13.585 40.57 12.74 40.57 11.75C40.57 10.72 40.71 9.86 40.99 9.17C41.28 8.47 41.65 7.91 42.1 7.49C42.56 7.06 43.07 6.755 43.63 6.575C44.19 6.385 44.75 6.29 45.31 6.29C45.91 6.29 46.415 6.33 46.825 6.41C47.245 6.49 47.59 6.585 47.86 6.695L47.455 8.435C47.225 8.325 46.95 8.245 46.63 8.195C46.32 8.145 45.94 8.12 45.49 8.12C44.66 8.12 43.99 8.415 43.48 9.005C42.98 9.595 42.73 10.51 42.73 11.75C42.73 12.29 42.79 12.785 42.91 13.235C43.03 13.675 43.21 14.055 43.45 14.375C43.7 14.685 44.005 14.93 44.365 15.11C44.735 15.28 45.16 15.365 45.64 15.365C46.09 15.365 46.47 15.32 46.78 15.23C47.09 15.14 47.36 15.025 47.59 14.885L48.01 16.565ZM54.6919 16.355C54.3919 16.595 53.9819 16.8 53.4619 16.97C52.9519 17.13 52.4069 17.21 51.8269 17.21C50.6169 17.21 49.7319 16.86 49.1719 16.16C48.6119 15.45 48.3319 14.48 48.3319 13.25C48.3319 11.93 48.6469 10.94 49.2769 10.28C49.9069 9.62 50.7919 9.29 51.9319 9.29C52.3119 9.29 52.6819 9.34 53.0419 9.44C53.4019 9.54 53.7219 9.705 54.0019 9.935C54.2819 10.165 54.5069 10.475 54.6769 10.865C54.8469 11.255 54.9319 11.74 54.9319 12.32C54.9319 12.53 54.9169 12.755 54.8869 12.995C54.8669 13.235 54.8319 13.485 54.7819 13.745H50.2819C50.3119 14.375 50.4719 14.85 50.7619 15.17C51.0619 15.49 51.5419 15.65 52.2019 15.65C52.6119 15.65 52.9769 15.59 53.2969 15.47C53.6269 15.34 53.8769 15.21 54.0469 15.08L54.6919 16.355ZM51.9019 10.85C51.3919 10.85 51.0119 11.005 50.7619 11.315C50.5219 11.615 50.3769 12.02 50.3269 12.53H53.1169C53.1569 11.99 53.0719 11.575 52.8619 11.285C52.6619 10.995 52.3419 10.85 51.9019 10.85ZM60.8991 17V12.74C60.8991 12.13 60.8091 11.69 60.6291 11.42C60.4591 11.15 60.1641 11.015 59.7441 11.015C59.3741 11.015 59.0591 11.125 58.7991 11.345C58.5491 11.555 58.3691 11.82 58.2591 12.14V17H56.3091V9.5H57.8541L58.0791 10.49H58.1391C58.3691 10.17 58.6741 9.89 59.0541 9.65C59.4341 9.41 59.9241 9.29 60.5241 9.29C60.8941 9.29 61.2241 9.34 61.5141 9.44C61.8041 9.54 62.0491 9.705 62.2491 9.935C62.4491 10.165 62.5991 10.48 62.6991 10.88C62.7991 11.27 62.8491 11.755 62.8491 12.335V17H60.8991ZM63.7029 9.5H64.7379V8.09L66.6879 7.535V9.5H68.5179V11.15H66.6879V14.03C66.6879 14.55 66.7379 14.925 66.8379 15.155C66.9479 15.375 67.1479 15.485 67.4379 15.485C67.6379 15.485 67.8079 15.465 67.9479 15.425C68.0979 15.385 68.2629 15.325 68.4429 15.245L68.7879 16.745C68.5179 16.875 68.2029 16.985 67.8429 17.075C67.4829 17.165 67.1179 17.21 66.7479 17.21C66.0579 17.21 65.5479 17.035 65.2179 16.685C64.8979 16.325 64.7379 15.74 64.7379 14.93V11.15H63.7029V9.5ZM75.6392 16.355C75.3392 16.595 74.9292 16.8 74.4092 16.97C73.8992 17.13 73.3542 17.21 72.7742 17.21C71.5642 17.21 70.6792 16.86 70.1192 16.16C69.5592 15.45 69.2792 14.48 69.2792 13.25C69.2792 11.93 69.5942 10.94 70.2242 10.28C70.8542 9.62 71.7392 9.29 72.8792 9.29C73.2592 9.29 73.6292 9.34 73.9892 9.44C74.3492 9.54 74.6692 9.705 74.9492 9.935C75.2292 10.165 75.4542 10.475 75.6242 10.865C75.7942 11.255 75.8792 11.74 75.8792 12.32C75.8792 12.53 75.8642 12.755 75.8342 12.995C75.8142 13.235 75.7792 13.485 75.7292 13.745H71.2292C71.2592 14.375 71.4192 14.85 71.7092 15.17C72.0092 15.49 72.4892 15.65 73.1492 15.65C73.5592 15.65 73.9242 15.59 74.2442 15.47C74.5742 15.34 74.8242 15.21 74.9942 15.08L75.6392 16.355ZM72.8492 10.85C72.3392 10.85 71.9592 11.005 71.7092 11.315C71.4692 11.615 71.3242 12.02 71.2742 12.53H74.0642C74.1042 11.99 74.0192 11.575 73.8092 11.285C73.6092 10.995 73.2892 10.85 72.8492 10.85ZM81.3964 11.33C81.0864 11.22 80.8064 11.165 80.5564 11.165C80.2064 11.165 79.9114 11.26 79.6714 11.45C79.4414 11.63 79.2864 11.865 79.2064 12.155V17H77.2564V9.5H78.7714L78.9964 10.49H79.0564C79.2264 10.12 79.4564 9.835 79.7464 9.635C80.0364 9.435 80.3764 9.335 80.7664 9.335C81.0264 9.335 81.3214 9.39 81.6514 9.5L81.3964 11.33ZM89.2052 17H82.5602V6.5H84.6152V15.17H89.2052V17ZM89.3329 13.25C89.3329 11.98 89.6429 11.005 90.2629 10.325C90.8829 9.635 91.7529 9.29 92.8729 9.29C93.4729 9.29 93.9929 9.385 94.4329 9.575C94.8729 9.765 95.2379 10.035 95.5279 10.385C95.8179 10.725 96.0329 11.14 96.1729 11.63C96.3229 12.12 96.3979 12.66 96.3979 13.25C96.3979 14.52 96.0879 15.5 95.4679 16.19C94.8579 16.87 93.9929 17.21 92.8729 17.21C92.2729 17.21 91.7529 17.115 91.3129 16.925C90.8729 16.735 90.5029 16.47 90.2029 16.13C89.9129 15.78 89.6929 15.36 89.5429 14.87C89.4029 14.38 89.3329 13.84 89.3329 13.25ZM91.3429 13.25C91.3429 13.58 91.3729 13.885 91.4329 14.165C91.4929 14.445 91.5829 14.69 91.7029 14.9C91.8229 15.11 91.9779 15.275 92.1679 15.395C92.3679 15.505 92.6029 15.56 92.8729 15.56C93.3829 15.56 93.7629 15.375 94.0129 15.005C94.2629 14.635 94.3879 14.05 94.3879 13.25C94.3879 12.56 94.2729 12.005 94.0429 11.585C93.8129 11.155 93.4229 10.94 92.8729 10.94C92.3929 10.94 92.0179 11.12 91.7479 11.48C91.4779 11.84 91.3429 12.43 91.3429 13.25ZM104.095 17C104.095 18.09 103.8 18.89 103.21 19.4C102.62 19.92 101.795 20.18 100.735 20.18C100.015 20.18 99.4445 20.13 99.0245 20.03C98.6145 19.93 98.3045 19.825 98.0945 19.715L98.4995 18.17C98.7295 18.26 98.9945 18.35 99.2945 18.44C99.6045 18.53 99.9845 18.575 100.435 18.575C101.115 18.575 101.575 18.425 101.815 18.125C102.065 17.835 102.19 17.425 102.19 16.895V16.415H102.13C101.78 16.885 101.16 17.12 100.27 17.12C99.2995 17.12 98.5745 16.82 98.0945 16.22C97.6245 15.62 97.3895 14.68 97.3895 13.4C97.3895 12.06 97.7095 11.045 98.3495 10.355C98.9895 9.665 99.9195 9.32 101.14 9.32C101.78 9.32 102.35 9.365 102.85 9.455C103.36 9.545 103.775 9.65 104.095 9.77V17ZM100.795 15.56C101.175 15.56 101.465 15.475 101.665 15.305C101.875 15.135 102.035 14.88 102.145 14.54V11.165C101.835 11.035 101.45 10.97 100.99 10.97C100.49 10.97 100.1 11.16 99.8195 11.54C99.5395 11.91 99.3995 12.505 99.3995 13.325C99.3995 14.055 99.5195 14.61 99.7595 14.99C99.9995 15.37 100.345 15.56 100.795 15.56ZM105.957 9.5H107.907V17H105.957V9.5ZM105.672 7.385C105.672 7.095 105.777 6.85 105.987 6.65C106.207 6.44 106.507 6.335 106.887 6.335C107.267 6.335 107.572 6.44 107.802 6.65C108.042 6.85 108.162 7.095 108.162 7.385C108.162 7.675 108.042 7.92 107.802 8.12C107.572 8.31 107.267 8.405 106.887 8.405C106.507 8.405 106.207 8.31 105.987 8.12C105.777 7.92 105.672 7.675 105.672 7.385ZM112.925 14.93C112.925 14.73 112.84 14.57 112.67 14.45C112.5 14.33 112.29 14.22 112.04 14.12C111.79 14.02 111.515 13.92 111.215 13.82C110.915 13.71 110.64 13.565 110.39 13.385C110.14 13.195 109.93 12.96 109.76 12.68C109.59 12.39 109.505 12.02 109.505 11.57C109.505 10.83 109.725 10.265 110.165 9.875C110.605 9.485 111.24 9.29 112.07 9.29C112.64 9.29 113.155 9.35 113.615 9.47C114.075 9.59 114.435 9.725 114.695 9.875L114.26 11.285C114.03 11.195 113.74 11.1 113.39 11C113.04 10.9 112.685 10.85 112.325 10.85C111.745 10.85 111.455 11.075 111.455 11.525C111.455 11.705 111.54 11.85 111.71 11.96C111.88 12.07 112.09 12.175 112.34 12.275C112.59 12.365 112.865 12.465 113.165 12.575C113.465 12.685 113.74 12.83 113.99 13.01C114.24 13.18 114.45 13.405 114.62 13.685C114.79 13.965 114.875 14.325 114.875 14.765C114.875 15.525 114.63 16.125 114.14 16.565C113.66 16.995 112.935 17.21 111.965 17.21C111.435 17.21 110.935 17.14 110.465 17C110.005 16.87 109.63 16.715 109.34 16.535L109.88 15.08C110.11 15.21 110.415 15.34 110.795 15.47C111.175 15.59 111.565 15.65 111.965 15.65C112.255 15.65 112.485 15.595 112.655 15.485C112.835 15.375 112.925 15.19 112.925 14.93ZM115.368 9.5H116.403V8.09L118.353 7.535V9.5H120.183V11.15H118.353V14.03C118.353 14.55 118.403 14.925 118.503 15.155C118.613 15.375 118.813 15.485 119.103 15.485C119.303 15.485 119.473 15.465 119.613 15.425C119.763 15.385 119.928 15.325 120.108 15.245L120.453 16.745C120.183 16.875 119.868 16.985 119.508 17.075C119.148 17.165 118.783 17.21 118.413 17.21C117.723 17.21 117.213 17.035 116.883 16.685C116.563 16.325 116.403 15.74 116.403 14.93V11.15H115.368V9.5ZM121.542 9.5H123.492V17H121.542V9.5ZM121.257 7.385C121.257 7.095 121.362 6.85 121.572 6.65C121.792 6.44 122.092 6.335 122.472 6.335C122.852 6.335 123.157 6.44 123.387 6.65C123.627 6.85 123.747 7.095 123.747 7.385C123.747 7.675 123.627 7.92 123.387 8.12C123.157 8.31 122.852 8.405 122.472 8.405C122.092 8.405 121.792 8.31 121.572 8.12C121.362 7.92 121.257 7.675 121.257 7.385ZM130.716 16.535C130.416 16.755 130.051 16.92 129.621 17.03C129.201 17.15 128.766 17.21 128.316 17.21C127.716 17.21 127.206 17.115 126.786 16.925C126.376 16.735 126.041 16.47 125.781 16.13C125.521 15.78 125.331 15.36 125.211 14.87C125.101 14.38 125.046 13.84 125.046 13.25C125.046 11.98 125.331 11.005 125.901 10.325C126.471 9.635 127.301 9.29 128.391 9.29C128.941 9.29 129.381 9.335 129.711 9.425C130.051 9.515 130.356 9.63 130.626 9.77L130.161 11.36C129.931 11.25 129.701 11.165 129.471 11.105C129.251 11.045 128.996 11.015 128.706 11.015C128.166 11.015 127.756 11.195 127.476 11.555C127.196 11.905 127.056 12.47 127.056 13.25C127.056 13.57 127.091 13.865 127.161 14.135C127.231 14.405 127.336 14.64 127.476 14.84C127.616 15.04 127.796 15.2 128.016 15.32C128.246 15.43 128.511 15.485 128.811 15.485C129.141 15.485 129.421 15.445 129.651 15.365C129.881 15.275 130.086 15.17 130.266 15.05L130.716 16.535Z" fill="#2C2C2C"/>
<g clip-path="url(#clip0_6_126)">
<path d="M12.5 8.036C11.6171 8.036 10.754 8.29781 10.0199 8.78832C9.28583 9.27883 8.71367 9.97601 8.3758 10.7917C8.03793 11.6074 7.94953 12.505 8.12177 13.3709C8.29402 14.2368 8.71917 15.0322 9.34348 15.6565C9.96778 16.2808 10.7632 16.706 11.6291 16.8782C12.495 17.0505 13.3926 16.9621 14.2083 16.6242C15.024 16.2863 15.7212 15.7142 16.2117 14.9801C16.7022 14.246 16.964 13.3829 16.964 12.5C16.9606 11.3171 16.4892 10.1837 15.6527 9.34726C14.8163 8.51084 13.6829 8.03943 12.5 8.036ZM23.155 11.31C22.8789 8.89506 21.793 6.64485 20.0741 4.9262C18.3553 3.20755 16.105 2.12182 13.69 1.846V0H11.31V1.845C8.89503 2.12082 6.64471 3.20655 4.92587 4.9252C3.20704 6.64385 2.12107 8.89406 1.845 11.309H0V13.69H1.845C2.12086 16.1051 3.20673 18.3556 4.92559 20.0744C6.64444 21.7933 8.89488 22.8791 11.31 23.155V25H13.69V23.155C16.1051 22.8791 18.3556 21.7933 20.0744 20.0744C21.7933 18.3556 22.8791 16.1051 23.155 13.69H25V11.31H23.155ZM12.5 20.833C10.8519 20.833 9.24079 20.3443 7.87043 19.4286C6.50008 18.513 5.43202 17.2116 4.80131 15.6889C4.17061 14.1662 4.00559 12.4908 4.32712 10.8743C4.64865 9.25787 5.44229 7.77307 6.60768 6.60768C7.77307 5.44229 9.25787 4.64865 10.8743 4.32712C12.4908 4.00559 14.1662 4.17061 15.6889 4.80131C17.2116 5.43202 18.513 6.50008 19.4286 7.87043C20.3443 9.24079 20.833 10.8519 20.833 12.5C20.8264 14.708 19.9464 16.8237 18.385 18.385C16.8237 19.9464 14.708 20.8264 12.5 20.833Z" fill="#2C2C2C"/>
</g>
<defs>
<clipPath id="clip0_6_126">
<rect width="25" height="25" fill="white"/>
</clipPath>
</defs>
</svg>

<svg width="136" height="25" fill="none" xmlns="http://www.w3.org/2000/svg"><path d="M48.01 16.565c-.32.23-.73.395-1.23.495-.49.1-.995.15-1.515.15-.63 0-1.23-.095-1.8-.285a3.964 3.964 0 01-1.485-.945c-.43-.44-.775-1.005-1.035-1.695-.25-.7-.375-1.545-.375-2.535 0-1.03.14-1.89.42-2.58.29-.7.66-1.26 1.11-1.68.46-.43.97-.735 1.53-.915.56-.19 1.12-.285 1.68-.285.6 0 1.105.04 1.515.12.42.08.765.175 1.035.285l-.405 1.74c-.23-.11-.505-.19-.825-.24-.31-.05-.69-.075-1.14-.075-.83 0-1.5.295-2.01.885-.5.59-.75 1.505-.75 2.745 0 .54.06 1.035.18 1.485.12.44.3.82.54 1.14.25.31.555.555.915.735.37.17.795.255 1.275.255.45 0 .83-.045 1.14-.135.31-.09.58-.205.81-.345l.42 1.68zm6.682-.21c-.3.24-.71.445-1.23.615-.51.16-1.055.24-1.635.24-1.21 0-2.095-.35-2.655-1.05-.56-.71-.84-1.68-.84-2.91 0-1.32.315-2.31.945-2.97.63-.66 1.515-.99 2.655-.99.38 0 .75.05 1.11.15.36.1.68.265.96.495.28.23.505.54.675.93.17.39.255.875.255 1.455 0 .21-.015.435-.045.675-.02.24-.055.49-.105.75h-4.5c.03.63.19 1.105.48 1.425.3.32.78.48 1.44.48.41 0 .775-.06 1.095-.18.33-.13.58-.26.75-.39l.645 1.275zm-2.79-5.505c-.51 0-.89.155-1.14.465-.24.3-.385.705-.435 1.215h2.79c.04-.54-.045-.955-.255-1.245-.2-.29-.52-.435-.96-.435zM60.899 17v-4.26c0-.61-.09-1.05-.27-1.32-.17-.27-.465-.405-.885-.405-.37 0-.685.11-.945.33-.25.21-.43.475-.54.795V17h-1.95V9.5h1.545l.225.99h.06c.23-.32.535-.6.915-.84s.87-.36 1.47-.36c.37 0 .7.05.99.15.29.1.535.265.735.495.2.23.35.545.45.945.1.39.15.875.15 1.455V17H60.9zm2.804-7.5h1.035V8.09l1.95-.555V9.5h1.83v1.65h-1.83v2.88c0 .52.05.895.15 1.125.11.22.31.33.6.33.2 0 .37-.02.51-.06.15-.04.315-.1.495-.18l.345 1.5c-.27.13-.585.24-.945.33-.36.09-.725.135-1.095.135-.69 0-1.2-.175-1.53-.525-.32-.36-.48-.945-.48-1.755v-3.78h-1.035V9.5zm11.936 6.855c-.3.24-.71.445-1.23.615-.51.16-1.055.24-1.635.24-1.21 0-2.095-.35-2.655-1.05-.56-.71-.84-1.68-.84-2.91 0-1.32.315-2.31.945-2.97.63-.66 1.515-.99 2.655-.99.38 0 .75.05 1.11.15.36.1.68.265.96.495.28.23.505.54.675.93.17.39.255.875.255 1.455 0 .21-.015.435-.045.675-.02.24-.055.49-.105.75h-4.5c.03.63.19 1.105.48 1.425.3.32.78.48 1.44.48.41 0 .775-.06 1.095-.18.33-.13.58-.26.75-.39l.645 1.275zm-2.79-5.505c-.51 0-.89.155-1.14.465-.24.3-.385.705-.435 1.215h2.79c.04-.54-.045-.955-.255-1.245-.2-.29-.52-.435-.96-.435zm8.547.48a2.54 2.54 0 00-.84-.165c-.35 0-.645.095-.885.285-.23.18-.385.415-.465.705V17h-1.95V9.5h1.515l.225.99h.06c.17-.37.4-.655.69-.855.29-.2.63-.3 1.02-.3.26 0 .555.055.885.165l-.255 1.83zm7.81 5.67H82.56V6.5h2.055v8.67h4.59V17zm.127-3.75c0-1.27.31-2.245.93-2.925.62-.69 1.49-1.035 2.61-1.035.6 0 1.12.095 1.56.285.44.19.805.46 1.095.81.29.34.505.755.645 1.245.15.49.225 1.03.225 1.62 0 1.27-.31 2.25-.93 2.94-.61.68-1.475 1.02-2.595 1.02-.6 0-1.12-.095-1.56-.285-.44-.19-.81-.455-1.11-.795a3.6 3.6 0 01-.66-1.26c-.14-.49-.21-1.03-.21-1.62zm2.01 0c0 .33.03.635.09.915s.15.525.27.735c.12.21.275.375.465.495.2.11.435.165.705.165.51 0 .89-.185 1.14-.555.25-.37.375-.955.375-1.755 0-.69-.115-1.245-.345-1.665-.23-.43-.62-.645-1.17-.645-.48 0-.855.18-1.125.54-.27.36-.405.95-.405 1.77zM104.095 17c0 1.09-.295 1.89-.885 2.4-.59.52-1.415.78-2.475.78-.72 0-1.29-.05-1.71-.15-.41-.1-.72-.205-.93-.315l.404-1.545c.23.09.496.18.796.27.31.09.69.135 1.14.135.68 0 1.14-.15 1.38-.45.25-.29.375-.7.375-1.23v-.48h-.06c-.35.47-.97.705-1.86.705-.97 0-1.695-.3-2.175-.9-.47-.6-.706-1.54-.706-2.82 0-1.34.32-2.355.96-3.045.64-.69 1.57-1.035 2.791-1.035.64 0 1.21.045 1.71.135a7.2 7.2 0 011.245.315V17zm-3.3-1.44c.38 0 .67-.085.87-.255.21-.17.37-.425.48-.765v-3.375c-.31-.13-.695-.195-1.155-.195-.5 0-.89.19-1.17.57-.28.37-.42.965-.42 1.785 0 .73.12 1.285.36 1.665.24.38.585.57 1.035.57zm5.162-6.06h1.95V17h-1.95V9.5zm-.285-2.115c0-.29.105-.535.315-.735.22-.21.52-.315.9-.315s.685.105.915.315c.24.2.36.445.36.735s-.12.535-.36.735c-.23.19-.535.285-.915.285s-.68-.095-.9-.285a.976.976 0 01-.315-.735zm7.253 7.545a.56.56 0 00-.255-.48c-.17-.12-.38-.23-.63-.33s-.525-.2-.825-.3c-.3-.11-.575-.255-.825-.435-.25-.19-.46-.425-.63-.705-.17-.29-.255-.66-.255-1.11 0-.74.22-1.305.66-1.695.44-.39 1.075-.585 1.905-.585.57 0 1.085.06 1.545.18.46.12.82.255 1.08.405l-.435 1.41c-.23-.09-.52-.185-.87-.285-.35-.1-.705-.15-1.065-.15-.58 0-.87.225-.87.675 0 .18.085.325.255.435.17.11.38.215.63.315l.825.3c.3.11.575.255.825.435.25.17.46.395.63.675.17.28.255.64.255 1.08 0 .76-.245 1.36-.735 1.8-.48.43-1.205.645-2.175.645-.53 0-1.03-.07-1.5-.21-.46-.13-.835-.285-1.125-.465l.54-1.455c.23.13.535.26.915.39.38.12.77.18 1.17.18.29 0 .52-.055.69-.165.18-.11.27-.295.27-.555zm2.443-5.43h1.035V8.09l1.95-.555V9.5h1.83v1.65h-1.83v2.88c0 .52.05.895.15 1.125.11.22.31.33.6.33.2 0 .37-.02.51-.06.15-.04.315-.1.495-.18l.345 1.5c-.27.13-.585.24-.945.33-.36.09-.725.135-1.095.135-.69 0-1.2-.175-1.53-.525-.32-.36-.48-.945-.48-1.755v-3.78h-1.035V9.5zm6.174 0h1.95V17h-1.95V9.5zm-.285-2.115c0-.29.105-.535.315-.735.22-.21.52-.315.9-.315s.685.105.915.315c.24.2.36.445.36.735s-.12.535-.36.735c-.23.19-.535.285-.915.285s-.68-.095-.9-.285a.976.976 0 01-.315-.735zm9.459 9.15c-.3.22-.665.385-1.095.495-.42.12-.855.18-1.305.18-.6 0-1.11-.095-1.53-.285a2.637 2.637 0 01-1.005-.795c-.26-.35-.45-.77-.57-1.26a7.403 7.403 0 01-.165-1.62c0-1.27.285-2.245.855-2.925.57-.69 1.4-1.035 2.49-1.035.55 0 .99.045 1.32.135.34.09.645.205.915.345l-.465 1.59c-.23-.11-.46-.195-.69-.255a2.92 2.92 0 00-.765-.09c-.54 0-.95.18-1.23.54-.28.35-.42.915-.42 1.695 0 .32.035.615.105.885.07.27.175.505.315.705.14.2.32.36.54.48.23.11.495.165.795.165.33 0 .61-.04.84-.12.23-.09.435-.195.615-.315l.45 1.485z" fill="#2C2C2C"/><g clip-path="url(#clip0_6_126)"><path d="M12.5 8.036a4.464 4.464 0 104.464 4.464A4.477 4.477 0 0012.5 8.036zm10.655 3.274a10.755 10.755 0 00-9.465-9.464V0h-2.38v1.845a10.755 10.755 0 00-9.465 9.464H0v2.381h1.845a10.755 10.755 0 009.465 9.465V25h2.38v-1.845a10.755 10.755 0 009.465-9.465H25v-2.38h-1.845zM12.5 20.833a8.333 8.333 0 118.333-8.333 8.358 8.358 0 01-8.333 8.333z" fill="#2C2C2C"/></g><defs><clipPath id="clip0_6_126"><path fill="#fff" d="M0 0h25v25H0z"/></clipPath></defs></svg>
